icons/leaf.svg

<svg width="14" height="14" viewBox="0 0 14 14" fill="none" xmlns="http://www.w3.org/2000/svg">
<path d="M10.756 2.06323C10.891 1.98779 11.0552 1.9782 11.1993 2.04077C11.364 2.1124 11.4778 2.26755 11.4972 2.44604L11.7706 5.00073C12.2861 9.81144 7.06684 13.0531 3.01282 10.6013C2.61134 10.9759 2.23615 11.3805 1.89075 11.8123L1.81946 11.8855C1.6408 12.0339 1.37612 12.041 1.18762 11.8904C0.972375 11.7179 0.937423 11.4038 1.1095 11.1882L1.37024 10.8728C1.72204 10.4617 2.09981 10.0754 2.50012 9.71558V8.49976C2.50025 5.73845 4.73878 3.49976 7.50012 3.49976C8.36556 3.49973 9.20816 3.21922 9.90051 2.69995L10.7003 2.09937L10.756 2.06323ZM10.5001 3.49976C9.63467 4.14884 8.58193 4.49973 7.50012 4.49976C5.29107 4.49976 3.50025 6.29073 3.50012 8.49976V8.90698C4.3618 8.28121 5.30403 7.76623 6.30579 7.37866L6.81946 7.17944C7.07698 7.07981 7.36726 7.20808 7.46692 7.46558C7.56631 7.72301 7.43818 8.01342 7.18079 8.11304L6.66614 8.31128C5.6443 8.70663 4.68969 9.24586 3.82922 9.90894C7.13606 11.6101 11.1901 8.97211 10.7765 5.10815L10.5958 3.42651L10.5001 3.49976Z" fill="red"/>
</svg>

<svg xmlns="http://www.w3.org/2000/svg" width="14" height="14" fill="none" viewBox="0 0 14 14"><path fill="red" d="M10.756 2.063a.5.5 0 0 1 .741.383l.274 2.555c.515 4.81-4.704 8.052-8.758 5.6q-.604.563-1.122 1.211l-.072.074a.501.501 0 0 1-.71-.698l.261-.315q.529-.617 1.13-1.157V8.5a5 5 0 0 1 5-5c.866 0 1.708-.28 2.4-.8l.8-.6zM10.5 3.5a5 5 0 0 1-3 1 4 4 0 0 0-4 4v.407a12.4 12.4 0 0 1 2.806-1.528l.513-.2a.501.501 0 0 1 .362.934l-.515.198A11.4 11.4 0 0 0 3.83 9.91c3.307 1.701 7.361-.937 6.948-4.8l-.181-1.682z"/></svg>
